X:1
T:Shine On, O Star! (Harrington)
T:Shine On, O Star! (Harrington)
T:Edmund Simon Lorenz
T:Belle Case Harrington, 1908
T:Public Domain Courtesy of the Cyber Hymnal™
T:Public Domain Courtesy of the Cyber Hymnal™
C:Edmund Simon Lorenz
Z:Public Domain
Z:Courtesy of the Cyber Hymnal™
%%score ( 1 2 ) ( 3 4 )
L:1/8
Q:1/4=90
M:6/8
K:Bb
V:1 treble 
V:2 treble 
V:3 bass 
V:4 bass 
V:1
 [DF][DF][DF] [^C=E][DF][_EG] | [DF]2 [DB] [Fd]2 z | [Fd][Ec][D=B] [Ec][Fd][Ec] | [DF]3- [DF]2 z | %4
w: 1.~Shine in thy beau- ty, O|won- drous Star,|Bright on thy ra- di- ant|way; *|
w: 2.~Down thro’ the ag- es, thou|viv- id spark,|Bright- ly thy glor- y doth|shine, *|
w: 3.~Bright- er thy beams as the|years roll by,|Great- er their pow- er to|bless, *|
 [D^F][DF][DF] [DF][DG][FA] | [GB]2 [Ac] [Bd]2 z | [Fd][Fc][FA] [FB][FA][=EG] | F3- F2 || %8
w: Hum- bly we fol- low thy|lead- ing far,|Be thou our bea- con al-|way. *|
w: Fill- ing with prom- ise earth’s|cor- ners dark,|Point- ing to God’s love di-|vine. *|
w: Fade- less thy place in cre-|a- tion’s sky,|Day- star of His right- eous-|ness. *|
"^Refrain" [DF] | [Fd]3- [Fd]2 [DF] | [Fd]3- [Fd]2 [DF] | [DG][DA][DG] [DF][DG][DB] | %12
w: ||||
w: Shine|on! * shine|on! * O|star of the morn- ing, shine|
w: ||||
 [EA]2 [Ae] [Ae]2 F | [Ae]3- [Ae]2 F | [Ae]3- [Ae]2 [EG] | [EA][DB][Ec] [EG][EA][EG] | %16
w: ||||
w: on! shine on! Shine|on! * shine|on! * The|wide world a- dorn- ing, shine|
w: ||||
 [DF]2 [Fd] [Fd]2 [DF] | [D^F][DF][DF] [DF][DG][FA] | [GB]2 [DA] [DG]2 [DG] | %19
w: |||
w: on! shine on! Each|soul that in glad- ness thy|praise doth sing Se-|
w: |||
 [=EG][EG][EG] [EG][FA][GB] | [Ac]2 [GB] [FA]2 [FA] | [^FA][FA][FA] [FA][GB][Ac] | %22
w: |||
w: cure- ly and peace- ful- ly|thou wilt bring, Where|dwell- eth in glo- ry our|
w: |||
 [Bd]2 [Ac] [GB]2 [Ge] | [Fd]2 [DF] [C=E]2 [_Ec] | [DB]3- [DB]2 z |] %25
w: |||
w: heav’n- ly king; Shine|on! shine on! shine|on! *|
w: |||
V:2
 x6 | x6 | x6 | x6 | x6 | x6 | x6 | F3- F2 || x | x6 | x6 | x6 | x5 F | x5 F | x6 | x6 | x6 | x6 | %18
 x6 | x6 | x6 | x6 | x6 | x6 | x6 |] %25
V:3
 [B,,B,][B,,B,][B,,B,] [B,,B,][B,,B,][B,,B,] | [B,,B,]2 [B,,F,] [B,,B,]2 z | %2
w: ~ ~ ~ ~ ~ ~|~ ~ ~|
 [F,A,][F,A,][F,^G,] [F,A,][F,A,][F,A,] | (z [B,,B,]2) z x2 | %4
w: ~ ~ ~ ~ ~ ~||
 [D,A,][D,A,][D,A,] [D,A,][D,B,][D,D] | [G,D]2 [G,D] [G,D]2 z | %6
w: * ~ ~ ~ ~ ~|~ ~ ~|
 [C,A,][C,A,][C,C] [C,D][C,C][C,B,] | (z [F,,F,A,]2) x2 || [B,,B,] | %9
w: ~ ~ ~ ~ ~ ~|||
 [B,,B,]2 [B,,B,] [B,,B,]2 [B,,B,] | [B,,B,]2 [B,,B,] [B,,B,]2 [B,,F,] | %11
w: ~ ~ ~ ~|~ Shine on! ~|
 [B,,G,][B,,A,][B,,G,] [B,,F,][B,,G,][B,,B,] | [C,F,]2 [F,C] [F,C]2 [F,A,] | %13
w: ~ Shine on! ~ ~ ~|~ ~ ~ ~|
 [F,C]2 [F,C] [F,C]2 [F,A,] | [F,C]2 [F,C] [F,C]2 [F,C] | [F,C][F,B,][F,A,] [F,A,][F,A,][F,A,] | %16
w: ~ ~ ~ ~|~ ~ Shine on!|~ ~ Shine on! * *|
 [B,,B,]2 B, B,2 [B,,B,] | [D,A,][D,A,][D,A,] [D,A,][D,B,][D,D] | [G,D]2 [G,C] [G,B,]2 [G,B,] | %19
w: |||
 [C,C][C,C][C,C] [C,C][C,C][C,C] | [F,C]2 [F,C] [F,C]2 [F,C] | [D,D][D,D][D,D] [D,D][D,D][D,D] | %22
w: |||
 [G,D]2 [G,D] [G,D]2 [E,E] | [F,B,]2 [F,B,] [G,B,]2 [F,A,] | [B,,B,]3- [B,,B,]2 z |] %25
w: |||
V:4
 x6 | x6 | x6 | [B,,B,]3- F,D, x | x6 | x6 | x6 | [F,A,]3- C,A,, || x | x6 | x6 | x6 | x6 | x6 | %14
 x6 | x6 | x2 B, B,2 x | x6 | x6 | x6 | x6 | x6 | x6 | x6 | x6 |] %25

